X:1
T:Title
L:1/8
Q:1/4=90
M:6/8
K:Eb
V:1 treble nm="Church Organ, Staff"
V:1
 G B2 G B2 | GFG A B2 | B c2 AcB | A e2- e/ z/ B2 | B e2- e/ z/ B2 | G F2 G =A2 | B d2 c B2 | %7
w: By~H.~Ernest~Nichol * * *|||||||
 A G2 =A =B2 | c e2 d c2 | B =A2 G F2 | G A2- A d2- | d F2- F B2- | BF=A- A/ z/ GF- | %13
w: ||||||
 F=EF- F3/2 z/ B- | B2 B- B/ z/ EE | FGG- G2 F- | F2 c- c/ z/ FF | GAB- B2 B- | B2 B- B/ z/ GG | %19
w: ||||||
 ABB- B2 A- | AAG- G/ z/ ce- | edc- c2 c- | c2 c- c/ z/ BA- | A2 A- A/ z/ GF- | F2 E- E2 F- | %25
w: ||||||
 F2 E- E3/2 z/ C- | C2 E- E2 E- | E3 z3 |] %28
w: |||

